X:11852
%14897
T:Sbrando ("Smarlon")
C:Tre Martelli: BrÃ¼zÃ¨ CarvÃ¨ 12
M:6/8
L:1/8
K:Cmaj
E2F|G2G GAG|E2E GFE|DCD FED|E2C E2F|\
G2G GAG|E2E GFE|DCD FED|C3
